dist/img/svgs/coffee-cup.svg

<svg fill="none" height="93" viewBox="0 0 139 93" width="139" xmlns="http://www.w3.org/2000/svg"><path d="m38.1 14.1c-11.2 1-20.7 3.3-24.1 5.8-3.2 2.3-3.6 7.2-1.6 17.2 3.6 17.4 13.5 30.6 28.2 37.6 6.7 3.2 8.7 3.7 17.3 4.1 16.2.8 26.6-2.8 37.6-12.8 4.8-4.4 7.5-6 13.1-7.8 12.1-3.8 18.6-10 20-18.8.7-4.6-1.3-9.6-4.5-11.4-1.1-.5-4.2-1-7-1-4.6 0-5-.2-5.3-2.7-.2-1.4-1.4-3.4-2.8-4.4-7.6-5.6-41.8-8.4-70.9-5.8zm55.9 7.9c7.8 1.5 9.5 2.6 4.9 3.5-4.9.9-5.9.9-21.9-.5-11.2-.9-18.5-.9-32.3 0-17 1.1-24.3.8-23.2-1 .3-.4 4.2-1.3 8.7-1.9 4.6-.6 9.4-1.3 10.8-1.5 5.1-.9 46.7.3 53 1.4zm-62 11.6c19.1 2.5 62.6 1.2 71.3-2.2 1.9-.7 1.9-.6-.5 9.1-5.2 20.9-26.6 35.1-47.5 31.7-17-2.8-31.1-15.6-35.1-31.7-2.4-9.8-2.4-9.8-.5-9.1 1 .4 6.5 1.4 12.3 2.2zm88.1.4c5.3 2.9-.7 12.7-10 16.6-4.2 1.8-4.7 1.4-2.8-2.3.8-1.5 2-5.4 2.7-8.5 1.1-5 1.6-5.7 3.9-6.1 1.4-.2 3-.5 3.4-.6.5 0 1.7.4 2.8.9z" fill="#000"/></svg>

<svg width="139" height="93" viewBox="0 0 139 93" fill="none" xmlns="http://www.w3.org/2000/svg">
<path d="M38.1 14.1C26.9 15.1 17.4 17.4 14 19.9C10.8 22.2 10.4 27.1 12.4 37.1C16 54.5 25.9 67.7 40.6 74.7C47.3 77.9 49.3 78.4 57.9 78.8C74.1 79.6 84.5 76 95.5 66C100.3 61.6 103 60 108.6 58.2C120.7 54.4 127.2 48.2 128.6 39.4C129.3 34.8 127.3 29.8 124.1 28C123 27.5 119.9 27 117.1 27C112.5 27 112.1 26.8 111.8 24.3C111.6 22.9 110.4 20.9 109 19.9C101.4 14.3 67.2 11.5 38.1 14.1ZM94 22C101.8 23.5 103.5 24.6 98.9 25.5C94 26.4 93 26.4 77 25C65.8 24.1 58.5 24.1 44.7 25C27.7 26.1 20.4 25.8 21.5 24C21.8 23.6 25.7 22.7 30.2 22.1C34.8 21.5 39.6 20.8 41 20.6C46.1 19.7 87.7 20.9 94 22ZM32 33.6C51.1 36.1 94.6 34.8 103.3 31.4C105.2 30.7 105.2 30.8 102.8 40.5C97.6 61.4 76.2 75.6 55.3 72.2C38.3 69.4 24.2 56.6 20.2 40.5C17.8 30.7 17.8 30.7 19.7 31.4C20.7 31.8 26.2 32.8 32 33.6ZM120.1 34C125.4 36.9 119.4 46.7 110.1 50.6C105.9 52.4 105.4 52 107.3 48.3C108.1 46.8 109.3 42.9 110 39.8C111.1 34.8 111.6 34.1 113.9 33.7C115.3 33.5 116.9 33.2 117.3 33.1C117.8 33.1 119 33.5 120.1 34Z" fill="black"/>
</svg>
